images/icon-profile-modal-close.svg

<svg fill="none" height="24" viewBox="0 0 24 24" width="24" xmlns="http://www.w3.org/2000/svg" xmlns:xlink="http://www.w3.org/1999/xlink"><mask id="a" height="20" maskUnits="userSpaceOnUse" width="20" x="2" y="2"><path clip-rule="evenodd" d="m14.707 9.293c-.391-.391-1.023-.391-1.414 0l-1.293 1.293-1.293-1.293c-.391-.391-1.023-.391-1.414 0s-.391 1.023 0 1.414l1.293 1.293-1.293 1.293c-.391.391-.391 1.023 0 1.414.195.195.451.293.707.293s.512-.098.707-.293l1.293-1.293 1.293 1.293c.195.195.451.293.707.293s.512-.098.707-.293c.391-.391.391-1.023 0-1.414l-1.293-1.293 1.293-1.293c.391-.391.391-1.023 0-1.414zm-2.707 10.707c-4.411 0-8-3.589-8-8s3.589-8 8-8 8 3.589 8 8-3.589 8-8 8zm0-18c-5.514 0-10 4.486-10 10s4.486 10 10 10 10-4.486 10-10-4.486-10-10-10z" fill="#fff" fill-rule="evenodd"/></mask><path clip-rule="evenodd" d="m14.707 9.293c-.391-.391-1.023-.391-1.414 0l-1.293 1.293-1.293-1.293c-.391-.391-1.023-.391-1.414 0s-.391 1.023 0 1.414l1.293 1.293-1.293 1.293c-.391.391-.391 1.023 0 1.414.195.195.451.293.707.293s.512-.098.707-.293l1.293-1.293 1.293 1.293c.195.195.451.293.707.293s.512-.098.707-.293c.391-.391.391-1.023 0-1.414l-1.293-1.293 1.293-1.293c.391-.391.391-1.023 0-1.414zm-2.707 10.707c-4.411 0-8-3.589-8-8s3.589-8 8-8 8 3.589 8 8-3.589 8-8 8zm0-18c-5.514 0-10 4.486-10 10s4.486 10 10 10 10-4.486 10-10-4.486-10-10-10z" fill="#f05f87" fill-rule="evenodd"/><g mask="url(#a)"><path d="m0 0h24v24h-24z" fill="#f05f87"/></g></svg>

<svg width="24" height="24" viewBox="0 0 24 24" fill="none" xmlns="http://www.w3.org/2000/svg">
<path fill-rule="evenodd" clip-rule="evenodd" d="M14.707 9.293C14.316 8.902 13.684 8.902 13.293 9.293L12 10.586L10.707 9.293C10.316 8.902 9.684 8.902 9.293 9.293C8.902 9.684 8.902 10.316 9.293 10.707L10.586 12L9.293 13.293C8.902 13.684 8.902 14.316 9.293 14.707C9.488 14.902 9.744 15 10 15C10.256 15 10.512 14.902 10.707 14.707L12 13.414L13.293 14.707C13.488 14.902 13.744 15 14 15C14.256 15 14.512 14.902 14.707 14.707C15.098 14.316 15.098 13.684 14.707 13.293L13.414 12L14.707 10.707C15.098 10.316 15.098 9.684 14.707 9.293ZM12 20C7.589 20 4 16.411 4 12C4 7.589 7.589 4 12 4C16.411 4 20 7.589 20 12C20 16.411 16.411 20 12 20ZM12 2C6.486 2 2 6.486 2 12C2 17.514 6.486 22 12 22C17.514 22 22 17.514 22 12C22 6.486 17.514 2 12 2Z" fill="#F05F87"/>
<mask id="mask0" mask-type="alpha" maskUnits="userSpaceOnUse" x="2" y="2" width="20" height="20">
<path fill-rule="evenodd" clip-rule="evenodd" d="M14.707 9.293C14.316 8.902 13.684 8.902 13.293 9.293L12 10.586L10.707 9.293C10.316 8.902 9.684 8.902 9.293 9.293C8.902 9.684 8.902 10.316 9.293 10.707L10.586 12L9.293 13.293C8.902 13.684 8.902 14.316 9.293 14.707C9.488 14.902 9.744 15 10 15C10.256 15 10.512 14.902 10.707 14.707L12 13.414L13.293 14.707C13.488 14.902 13.744 15 14 15C14.256 15 14.512 14.902 14.707 14.707C15.098 14.316 15.098 13.684 14.707 13.293L13.414 12L14.707 10.707C15.098 10.316 15.098 9.684 14.707 9.293ZM12 20C7.589 20 4 16.411 4 12C4 7.589 7.589 4 12 4C16.411 4 20 7.589 20 12C20 16.411 16.411 20 12 20ZM12 2C6.486 2 2 6.486 2 12C2 17.514 6.486 22 12 22C17.514 22 22 17.514 22 12C22 6.486 17.514 2 12 2Z" fill="white"/>
</mask>
<g mask="url(#mask0)">
<rect width="24" height="24" fill="#F05F87"/>
</g>
</svg>
